dist/svgs/unicons/line/file-plus.svg

<svg xmlns="http://www.w3.org/2000/svg" viewBox="0 0 24 24"><path d="M20 8.94a1.31 1.31 0 00-.06-.27v-.09a1.07 1.07 0 00-.19-.28l-6-6a1.07 1.07 0 00-.28-.19.32.32 0 00-.09 0 .88.88 0 00-.33-.11H7a3 3 0 00-3 3v14a3 3 0 003 3h10a3 3 0 003-3V8.94zm-6-3.53L16.59 8H15a1 1 0 01-1-1zM18 19a1 1 0 01-1 1H7a1 1 0 01-1-1V5a1 1 0 011-1h5v3a3 3 0 003 3h3zm-4-5h-1v-1a1 1 0 00-2 0v1h-1a1 1 0 000 2h1v1a1 1 0 002 0v-1h1a1 1 0 000-2z"/></svg>

<svg xmlns="http://www.w3.org/2000/svg" viewBox="0 0 24 24"><path d="M20,8.94a1.31,1.31,0,0,0-.06-.27l0-.09a1.07,1.07,0,0,0-.19-.28h0l-6-6h0a1.07,1.07,0,0,0-.28-.19.32.32,0,0,0-.09,0A.88.88,0,0,0,13.05,2H7A3,3,0,0,0,4,5V19a3,3,0,0,0,3,3H17a3,3,0,0,0,3-3V9S20,9,20,8.94ZM14,5.41,16.59,8H15a1,1,0,0,1-1-1ZM18,19a1,1,0,0,1-1,1H7a1,1,0,0,1-1-1V5A1,1,0,0,1,7,4h5V7a3,3,0,0,0,3,3h3Zm-4-5H13V13a1,1,0,0,0-2,0v1H10a1,1,0,0,0,0,2h1v1a1,1,0,0,0,2,0V16h1a1,1,0,0,0,0-2Z"/></svg>
